X:3302
T:Concertina reel, The
S:sessions
R:Reel
O:Ireland
M:4/4
K:D
A2 FA BAFB|A2FA BAFA|\
B2{Bd}BA B2{Bd}BA|B2{Bd}BA BAFB|\
A2FA BAFB|A2FA BAFE|
FABc d3B|AFEF D4::\
Ad (3ddd Ad (3ddd|AddA BAFA|
B2{c}BA B2{c}BA|B2{c}BA BAFA|\
Ad (3ddd Ad (3ddd|Ad (3ddd BAFE|\
FABc d3B|AFEF D4:|


